usr/share/icons/biglinux-icons-material/16/actions/fill-color.svg

<svg xmlns="http://www.w3.org/2000/svg" viewBox="0 0 16 16">
  <defs id="defs3051">
    <style type="text/css" id="current-color-scheme">
      .ColorScheme-Text {
        color:#dedede;
      }
      </style>
  </defs>
 <path style="fill:currentColor;fill-opacity:1;stroke:none" 
     d="M 8.0566406 2 C 6.9416206 2 6.0371094 2.89542 6.0371094 4 L 6.0371094 5.75 L 2 9.75 L 6.2910156 14 L 12 8.34375 L 10.580078 6.9375 L 10.076172 6.4375 L 10.076172 4 C 10.076172 2.89542 9.1716706 2 8.0566406 2 z M 8.0566406 3 C 8.6141506 3 9.0664062 3.44772 9.0664062 4 L 9.0664062 5.4375 L 7.7089844 4.09375 L 7.046875 4.75 L 7.046875 4 C 7.046875 3.44772 7.4991306 3 8.0566406 3 z M 7.7089844 5.5 L 10.580078 8.34375 C 7.5802181 11.73679 7.2878319 7.21687 3.4199219 9.75 L 7.7089844 5.5 z M 12.5 9 C 12.20812 10.06405 11.479022 10.976614 11.164062 11.708984 C 11.053853 11.926734 11 12.17332 11 12.4375 C 11 13.30312 11.669 14 12.5 14 C 13.331 14 14 13.30312 14 12.4375 C 14 12.17332 13.9227 11.926734 13.8125 11.708984 C 13.49754 10.976614 12.79187 10.06405 12.5 9 z "
     class="ColorScheme-Text"
     />
</svg>

<svg xmlns="http://www.w3.org/2000/svg" viewBox="0 0 16 16"><path d="M8.057 2a2.01 2.01 0 0 0-2.02 2v1.75L2 9.75 6.291 14 12 8.344l-1.42-1.406-.504-.5V4c0-1.105-.904-2-2.02-2zm0 1c.557 0 1.01.448 1.01 1v1.438L7.708 4.093l-.662.656V4c0-.552.452-1 1.01-1zm-.348 2.5 2.871 2.844c-3 3.393-3.292-1.127-7.16 1.406L7.709 5.5zM12.5 9c-.292 1.064-1.021 1.977-1.336 2.709a1.6 1.6 0 0 0-.164.729c0 .865.669 1.562 1.5 1.562s1.5-.697 1.5-1.563c0-.264-.077-.51-.188-.728-.314-.732-1.02-1.645-1.312-2.709z" style="fill:currentColor;fill-opacity:1;stroke:none;color:#dedede"/></svg>
